X: 30634
T: Onion Gate, The
R: jig
M: 6/8
K: Dmajor
|:d2f edB|def a3|baf afe|fed edB|
d2f edB|def a2e|fgf edB|1 ABc d3:|2 ABc d2e||
|:a3 aba|f3 faf|e2f fed|cBc def|
a3 aba|f3 faf|efe edB|1 ABc d2e:|2 ABc d3||

